assets/img/base/adv1.svg

<svg width="71" height="71" viewBox="0 0 71 71" fill="none" xmlns="http://www.w3.org/2000/svg">
<g clip-path="url(#clip0_160_27)">
<path d="M33.0039 0.152534C18.6375 1.17871 6.29571 10.8025 1.80275 24.5172C-0.124794 30.4385 -0.443739 37.1225 0.915245 43.2656C3.10626 53.0697 9.54064 61.6396 18.4295 66.5625C26.2922 70.9168 35.8606 72.0816 44.6108 69.7519C56.8416 66.4932 66.4932 56.8416 69.752 44.6107C72.9969 32.4215 69.4746 19.3447 60.5442 10.4559C54.3039 4.24335 46.5938 0.762695 37.7465 0.152534C35.4307 -0.0138702 35.3475 -0.0138702 33.0039 0.152534ZM43.1686 20.7453L46.4551 24.1428V30.7713V37.4137L47.3426 37.7187C49.908 38.5646 51.7524 40.7418 52.1545 43.4043C52.6676 46.6908 50.6014 49.9496 47.3426 51.0312L46.4551 51.3363V52.2793C46.4551 52.8062 46.4135 53.3193 46.3719 53.4441C46.2887 53.6383 44.9574 53.666 32.5879 53.666C20.2184 53.666 18.8871 53.6383 18.8039 53.4441C18.693 53.1668 18.693 17.8332 18.8039 17.5559C18.8871 17.3617 19.9272 17.334 29.3846 17.3478L39.8682 17.3617L43.1686 20.7453Z" fill="#02361E"/>
<path d="M19.6914 35.5V52.834H32.5879H45.4844V52.1545V51.4611L44.8326 51.3779C43.6539 51.2393 42.5029 50.8787 41.7264 50.4488C40.7002 49.8664 39.5354 48.6322 39.0361 47.6061L38.6201 46.7463H29.8699C22.0488 46.7324 21.092 46.7047 20.9256 46.5105C20.8008 46.358 20.7869 46.2332 20.8979 46.0668C21.0227 45.8449 21.7854 45.8311 29.6619 45.7895L38.2734 45.7617V44.5137V43.2656L29.6619 43.2379C21.7854 43.1963 21.0227 43.1824 20.8979 42.9605C20.7869 42.7941 20.8008 42.6693 20.9256 42.5168C21.092 42.3227 22.0488 42.2949 29.8145 42.2949H38.523L38.6756 41.8373C38.7588 41.5877 39.05 41.0607 39.3135 40.6447C39.577 40.2426 39.7988 39.882 39.7988 39.8543C39.7988 39.8266 35.6248 39.7988 30.5355 39.7988C20.6066 39.7988 20.6482 39.7988 20.8562 39.1332L20.9533 38.8281H30.91H40.8805L41.657 38.3566C42.4336 37.8852 43.5984 37.5246 44.8326 37.3721L45.4844 37.2889V31.0625V24.8223L42.3365 24.7945L39.1748 24.7529L39.1332 21.4525L39.1055 18.166H29.3984H19.6914V35.5ZM27.0133 20.4125C27.249 20.6482 27.249 26.2229 27.0133 26.4586C26.833 26.6389 21.4525 26.7082 21.0227 26.5418C20.8285 26.4725 20.8008 26.0564 20.8008 23.4355C20.8008 21.1475 20.8424 20.3848 20.9811 20.3432C21.0643 20.3016 22.4232 20.26 24.0041 20.26C26.0426 20.2461 26.8885 20.2877 27.0133 20.4125ZM37.8852 21.5357C37.9545 21.6328 37.9822 21.7992 37.9545 21.9102C37.9268 22.0904 37.2611 22.1182 33.1564 22.1598C28.5109 22.1875 28.0117 22.1598 28.0117 21.7576C28.0117 21.7021 28.1227 21.5496 28.2475 21.4109C28.4693 21.1891 28.8438 21.1891 33.1426 21.2723C36.443 21.3416 37.8158 21.4248 37.8852 21.5357ZM37.8574 24.7529C37.9406 24.8639 37.9822 25.0719 37.9268 25.2383C37.8436 25.5156 37.7604 25.5156 33.0871 25.5156C29.5787 25.5156 28.3029 25.474 28.1781 25.3492C27.9563 25.1273 27.9701 25.0303 28.2336 24.7668C28.4139 24.5727 29.0518 24.5449 33.0594 24.5449C36.9283 24.5449 37.7188 24.5727 37.8574 24.7529ZM44.2502 28.6496C44.375 28.8021 44.3889 28.927 44.2779 29.0934C44.1531 29.3152 43.2102 29.3291 32.5879 29.3291C21.9656 29.3291 21.0227 29.3152 20.8979 29.0934C20.7869 28.927 20.8008 28.8021 20.9256 28.6496C21.092 28.4555 22.2846 28.4277 32.5879 28.4277C42.8912 28.4277 44.0838 28.4555 44.2502 28.6496ZM44.2502 32.1164C44.375 32.2689 44.3889 32.3938 44.2779 32.5602C44.1531 32.782 43.2102 32.7959 32.5879 32.7959C21.9656 32.7959 21.0227 32.782 20.8979 32.5602C20.7869 32.3938 20.8008 32.2689 20.9256 32.1164C21.092 31.9223 22.2846 31.8945 32.5879 31.8945C42.8912 31.8945 44.0838 31.9223 44.2502 32.1164ZM44.3195 35.6664C44.5275 36.3459 44.7217 36.332 32.5879 36.332C20.4541 36.332 20.6482 36.3459 20.8562 35.6664L20.9533 35.3613H32.5879H44.2225L44.3195 35.6664ZM31.0209 49.5891C31.0625 49.7139 31.0486 49.9219 30.9654 50.0467C30.8406 50.2408 30.2721 50.2686 26.1951 50.3102C23.6436 50.324 21.4248 50.3102 21.2584 50.2686C20.9533 50.1992 20.8146 49.6861 21.0365 49.4643C21.0781 49.4088 23.3246 49.3672 26.0287 49.3672C30.4385 49.3672 30.9377 49.3949 31.0209 49.5891Z" fill="#02361E"/>
<path d="M21.7715 23.4355V25.6543H23.9902H26.209V23.4355V21.2168H23.9902H21.7715V23.4355Z" fill="#02361E"/>
<path d="M40.0762 21.4664V23.8516H42.3781H44.6801L43.2934 22.3539C42.5307 21.5357 41.4906 20.468 40.9914 19.9687L40.0762 19.0812V21.4664Z" fill="#02361E"/>
<path d="M44.2779 38.4121C42.4336 38.6756 40.5893 40.09 39.7572 41.8373C39.3412 42.7248 39.3135 42.8635 39.3135 44.375C39.3135 45.9142 39.3273 46.0113 39.785 46.9404C41.2687 49.9357 44.8465 51.2254 47.8141 49.8248C48.8402 49.3533 50.1715 48.0082 50.6568 46.9959C51.7939 44.5691 51.3086 41.865 49.3672 40.0207C48.9096 39.5769 48.2023 39.0777 47.7863 38.8974C47.1207 38.6062 45.5537 38.2457 45.1377 38.2873C45.0684 38.3012 44.6801 38.3566 44.2779 38.4121ZM46.5105 38.8836C47.2039 39.1748 47.9943 39.9375 48.2994 40.617C48.452 40.9637 48.5906 41.6848 48.6322 42.3226C48.6738 42.9189 48.7709 43.4459 48.8264 43.4875C48.8957 43.5291 48.9512 44.5969 48.9512 45.8726C48.9512 47.9527 48.9234 48.2301 48.6738 48.6461C48.1885 49.4504 47.5229 49.6445 45.2209 49.6445C42.8635 49.6445 42.2811 49.4642 41.768 48.549C41.4906 48.0637 41.4629 47.8141 41.4629 45.7894C41.4629 43.9867 41.5045 43.543 41.6709 43.4043C41.8234 43.2795 41.8789 42.9467 41.8789 42.2394C41.8928 40.6308 42.4752 39.6185 43.751 39.0223C44.5553 38.634 45.7895 38.5785 46.5105 38.8836Z" fill="#02361E"/>
<path d="M44.1254 39.8959C43.5291 40.1871 43.016 40.8666 42.9189 41.4767L42.8496 41.9482L43.0021 41.5322C43.224 40.9359 43.9312 40.2426 44.4859 40.0623C45.526 39.7156 46.7602 40.1732 47.2455 41.0885C47.3703 41.3381 47.5229 41.9344 47.5645 42.4336C47.6615 43.3072 47.6615 43.3211 47.6893 42.6416C47.717 41.3519 47.2178 40.3396 46.3025 39.8682C45.7895 39.5908 44.6939 39.6047 44.1254 39.8959Z" fill="#02361E"/>
<path d="M44.5553 41.0746C44.1531 41.2688 43.8203 42.0037 43.8203 42.6971V43.2656H45.207H46.5938V42.6416C46.5938 41.2549 45.6646 40.5338 44.5553 41.0746Z" fill="#02361E"/>
<path d="M42.4336 46.0945C42.4336 48.6877 42.3226 48.5906 45.1238 48.6461C47.2732 48.6877 47.2871 48.6877 47.6338 48.341C47.9666 48.0082 47.9805 47.9389 47.9805 46.1084V44.2363H45.207H42.4336V46.0945Z" fill="#02361E"/>
</g>
<defs>
<clipPath id="clip0_160_27">
<rect width="71" height="71" fill="white"/>
</clipPath>
</defs>
</svg>

<svg width="71" height="71" fill="none" xmlns="http://www.w3.org/2000/svg"><g clip-path="url(#a)" fill="#02361E"><path d="M33.004.153C18.638 1.179 6.296 10.803 1.803 24.517-.125 30.44-.444 37.123.915 43.266 3.106 53.07 9.541 61.64 18.43 66.563c7.862 4.354 17.43 5.519 26.18 3.189 12.232-3.259 21.883-12.91 25.142-25.141 3.245-12.19-.277-25.266-9.208-34.155C54.304 4.243 46.594.763 37.747.153c-2.316-.167-2.4-.167-4.743 0Zm10.165 20.592 3.286 3.398v13.271l.888.305a7.076 7.076 0 0 1 4.811 5.685c.514 3.287-1.553 6.546-4.811 7.627l-.888.305v.943c0 .527-.041 1.04-.083 1.165-.083.194-1.415.222-13.784.222-12.37 0-13.7-.028-13.784-.222-.111-.277-.111-35.61 0-35.888.083-.194 1.123-.222 10.58-.208l10.484.014 3.3 3.383Z"/><path d="M19.691 35.5v17.334h25.793v-1.373l-.651-.083c-1.18-.139-2.33-.5-3.107-.93-1.026-.582-2.19-1.816-2.69-2.842l-.416-.86h-8.75c-7.821-.014-8.778-.041-8.944-.236-.125-.152-.14-.277-.028-.443.125-.222.887-.236 8.764-.278l8.611-.027v-2.496l-8.611-.028c-7.877-.042-8.64-.056-8.764-.277-.111-.167-.097-.292.028-.444.166-.194 1.123-.222 8.889-.222h8.708l.153-.458c.083-.25.374-.776.637-1.192.264-.402.486-.763.486-.79 0-.028-4.174-.056-9.264-.056-9.928 0-9.887 0-9.679-.666l.097-.305H40.88l.777-.471c.777-.472 1.941-.832 3.176-.985l.651-.083V24.822l-3.148-.027-3.161-.042-.042-3.3-.028-3.287H19.691V35.5Zm7.322-15.087c.236.235.236 5.81 0 6.046-.18.18-5.56.25-5.99.083-.195-.07-.222-.486-.222-3.107 0-2.287.041-3.05.18-3.092.083-.041 1.442-.083 3.023-.083 2.039-.014 2.884.028 3.01.152Zm10.872 1.123c.07.097.097.263.07.374-.028.18-.694.208-4.799.25-4.645.027-5.144 0-5.144-.402 0-.056.11-.208.235-.347.222-.222.597-.222 4.896-.139 3.3.07 4.673.153 4.742.264Zm-.028 3.217a.578.578 0 0 1 .07.485c-.083.278-.167.278-4.84.278-3.508 0-4.784-.042-4.909-.167-.222-.222-.208-.319.056-.582.18-.194.818-.222 4.825-.222 3.87 0 4.66.028 4.798.208Zm6.393 3.897c.125.152.139.277.028.443-.125.222-1.068.236-11.69.236s-11.565-.014-11.69-.236c-.111-.166-.097-.29.028-.443.166-.194 1.359-.222 11.662-.222s11.496.027 11.662.222Zm0 3.466c.125.153.139.278.028.444-.125.222-1.068.236-11.69.236s-11.565-.014-11.69-.236c-.111-.166-.097-.291.028-.444.166-.194 1.359-.221 11.662-.221s11.496.027 11.662.221Zm.07 3.55c.208.68.402.666-11.732.666-12.134 0-11.94.014-11.732-.666l.097-.305h23.269l.097.305ZM31.02 49.59a.595.595 0 0 1-.055.458c-.124.194-.693.222-4.77.263-2.551.014-4.77 0-4.937-.041-.305-.07-.443-.583-.221-.805.041-.055 2.288-.097 4.992-.097 4.41 0 4.909.028 4.992.222Z"/><path d="M21.771 23.436v2.218H26.21V21.216H21.772v2.22ZM40.076 21.466v2.386h4.604l-1.387-1.498a113.975 113.975 0 0 0-2.302-2.385l-.915-.888v2.385ZM44.278 38.412c-1.844.264-3.689 1.678-4.52 3.425-.417.888-.445 1.026-.445 2.538 0 1.54.014 1.636.472 2.565 1.484 2.996 5.062 4.285 8.03 2.885 1.025-.472 2.357-1.817 2.842-2.83 1.137-2.426.652-5.13-1.29-6.974-.457-.444-1.165-.943-1.58-1.124-.666-.29-2.233-.651-2.65-.61-.069.014-.457.07-.86.125Zm2.233.472c.693.29 1.483 1.053 1.788 1.733.153.347.292 1.068.333 1.706.042.596.139 1.123.194 1.164.07.042.125 1.11.125 2.386 0 2.08-.028 2.357-.277 2.773-.486.804-1.151.998-3.453.998-2.357 0-2.94-.18-3.453-1.095-.277-.485-.305-.735-.305-2.76 0-1.802.041-2.246.208-2.385.152-.125.208-.457.208-1.165.014-1.608.596-2.62 1.872-3.217.804-.388 2.038-.444 2.76-.138Z"/><path d="M44.125 39.896c-.596.291-1.109.97-1.206 1.58l-.07.472.153-.416c.222-.596.93-1.29 1.484-1.47 1.04-.346 2.274.111 2.76 1.027.124.25.277.845.319 1.345.096.873.096.887.124.208.028-1.29-.471-2.302-1.386-2.774-.514-.277-1.61-.263-2.178.028Z"/><path d="M44.555 41.075c-.402.194-.735.929-.735 1.622v.569h2.774v-.624c0-1.387-.93-2.108-2.039-1.567ZM42.434 46.094c0 2.594-.111 2.497 2.69 2.552 2.15.042 2.163.042 2.51-.305.333-.333.346-.402.346-2.233v-1.872h-5.546v1.858Z"/></g><defs><clipPath id="a"><path fill="#fff" d="M0 0h71v71H0z"/></clipPath></defs></svg>
